app/img/logo.svg

<svg xmlns="http://www.w3.org/2000/svg" viewBox="0 0 174.568 62.366"><defs><style>.cls-3{fill:#4d93f4}.cls-4{fill:#fff}</style><clipPath id="clip-path"><path id="Path_25032" data-name="Path 25032" d="M0-109.756h174.569v-62.366H0z" transform="translate(0 172.122)" fill="#9e9e9e"/></clipPath></defs><g id="Group_4214" data-name="Group 4214" clip-path="url(#clip-path)"><g id="Group_4208" data-name="Group 4208" transform="translate(0 54.415)"><path id="Path_25026" data-name="Path 25026" class="cls-3" d="M-7 0a3.976 3.976 0 0 0-3.976 3.976A3.976 3.976 0 0 0-7 7.952a3.975 3.975 0 0 0 3.979-3.976A3.975 3.975 0 0 0-7 0" transform="translate(10.972)"/></g><g id="Group_4209" data-name="Group 4209" transform="translate(7.469 8.355)"><path id="Path_25027" data-name="Path 25027" class="cls-3" d="M-48.353-.665A23.729 23.729 0 0 0-55.6-.849 22.769 22.769 0 0 0-62.047.965a23.3 23.3 0 0 0-13.51 17.711 23.306 23.306 0 0 0 1.457 12.37 4.349 4.349 0 0 1-.544 4.1 6.563 6.563 0 0 0-1.1 4.829 6.466 6.466 0 0 0 1.31 2.983q.816.8 1.686 1.527a6.426 6.426 0 0 0 2.436.923 6.583 6.583 0 0 0 3.275-.3 6.505 6.505 0 0 0 1.554-.8 4.336 4.336 0 0 1 4.1-.547 23.058 23.058 0 0 0 8.66 1.727 23.8 23.8 0 0 0 3.714-.265 23.246 23.246 0 0 0 19.523-19.94A23.275 23.275 0 0 0-48.353-.665" transform="translate(75.829 1.043)"/></g><g id="Group_4210" data-name="Group 4210" transform="translate(141.477 15.534)"><path id="Path_25028" data-name="Path 25028" class="cls-4" d="M-55.816-58.237a1.376 1.376 0 0 1-1.376-1.376v-15.17a13.81 13.81 0 0 0-13.794-13.794A13.81 13.81 0 0 0-84.78-74.783a13.81 13.81 0 0 0 13.794 13.794 13.809 13.809 0 0 0 6.574-1.664 1.376 1.376 0 0 1 1.866.552 1.376 1.376 0 0 1-.552 1.866 16.57 16.57 0 0 1-7.888 2 16.565 16.565 0 0 1-16.546-16.548 16.565 16.565 0 0 1 16.546-16.546A16.565 16.565 0 0 1-54.44-74.783v15.17a1.376 1.376 0 0 1-1.376 1.376" transform="translate(87.532 91.329)"/></g><g id="Group_4211" data-name="Group 4211" transform="translate(59.159)"><path id="Path_25029" data-name="Path 25029" class="cls-4" d="M-29.119-85.575a16.565 16.565 0 0 1-16.546-16.546 16.565 16.565 0 0 1 16.546-16.546 16.5 16.5 0 0 1 8.744 2.5 1.376 1.376 0 0 1 .44 1.9 1.375 1.375 0 0 1-1.9.439 13.758 13.758 0 0 0-7.288-2.08 13.81 13.81 0 0 0-13.795 13.794 13.81 13.81 0 0 0 13.799 13.787 13.81 13.81 0 0 0 13.794-13.795v-30.7a1.376 1.376 0 0 1 1.376-1.376 1.376 1.376 0 0 1 1.376 1.376v30.7a16.565 16.565 0 0 1-16.546 16.547" transform="translate(45.665 134.201)"/></g><g id="Group_4212" data-name="Group 4212" transform="translate(100.303 15.534)"><path id="Path_25030" data-name="Path 25030" class="cls-4" d="M-29.118-58.237a16.565 16.565 0 0 1-16.546-16.546 16.565 16.565 0 0 1 16.546-16.546 16.565 16.565 0 0 1 16.546 16.546 1.376 1.376 0 0 1-1.376 1.376h-15.17a1.376 1.376 0 0 1-1.376-1.376 1.376 1.376 0 0 1 1.376-1.376h13.726a13.813 13.813 0 0 0-13.726-12.418 13.81 13.81 0 0 0-13.794 13.794 13.81 13.81 0 0 0 13.794 13.794A13.669 13.669 0 0 0-19.1-65.306a1.376 1.376 0 0 1 1.945-.054 1.376 1.376 0 0 1 .054 1.945 16.4 16.4 0 0 1-12.022 5.177" transform="translate(45.664 91.329)"/></g><g id="Group_4213" data-name="Group 4213" transform="translate(14.192 15.077)"><path id="Path_25031" data-name="Path 25031" class="cls-4" d="M-29.119-58.237a16.565 16.565 0 0 1-16.546-16.546 16.565 16.565 0 0 1 16.546-16.546 16.565 16.565 0 0 1 16.546 16.546 1.376 1.376 0 0 1-1.376 1.376h-15.17a1.376 1.376 0 0 1-1.376-1.376 1.376 1.376 0 0 1 1.376-1.376h13.726a13.814 13.814 0 0 0-13.726-12.418 13.81 13.81 0 0 0-13.794 13.794 13.81 13.81 0 0 0 13.794 13.794A13.669 13.669 0 0 0-19.1-65.306a1.376 1.376 0 0 1 1.945-.054 1.376 1.376 0 0 1 .054 1.945 16.4 16.4 0 0 1-12.022 5.177" transform="translate(45.665 91.329)"/></g></g></svg>

<svg xmlns="http://www.w3.org/2000/svg" xmlns:xlink="http://www.w3.org/1999/xlink" viewBox="0 0 174.568 62.366">
  <defs>
    <style>
      .cls-1 {
        fill: #9e9e9e;
      }

      .cls-2 {
        clip-path: url(#clip-path);
      }

      .cls-3 {
        fill: #4d93f4;
      }

      .cls-4 {
        fill: #fff;
      }
    </style>
    <clipPath id="clip-path">
      <path id="Path_25032" data-name="Path 25032" class="cls-1" d="M0-109.756H174.569v-62.366H0Z" transform="translate(0 172.122)"/>
    </clipPath>
  </defs>
  <g id="Group_4214" data-name="Group 4214" class="cls-2">
    <g id="Group_4208" data-name="Group 4208" transform="translate(0 54.415)">
      <path id="Path_25026" data-name="Path 25026" class="cls-3" d="M-7,0a3.976,3.976,0,0,0-3.976,3.976A3.976,3.976,0,0,0-7,7.952,3.975,3.975,0,0,0-3.021,3.976,3.975,3.975,0,0,0-7,0" transform="translate(10.972)"/>
    </g>
    <g id="Group_4209" data-name="Group 4209" transform="translate(7.469 8.355)">
      <path id="Path_25027" data-name="Path 25027" class="cls-3" d="M-48.353-.665A23.729,23.729,0,0,0-55.6-.849,22.769,22.769,0,0,0-62.047.965h0A23.3,23.3,0,0,0-75.557,18.676,23.306,23.306,0,0,0-74.1,31.046a4.349,4.349,0,0,1-.544,4.1,6.563,6.563,0,0,0-1.1,4.829,6.466,6.466,0,0,0,1.31,2.983q.816.8,1.686,1.527a6.426,6.426,0,0,0,2.436.923,6.583,6.583,0,0,0,3.275-.3h0a6.505,6.505,0,0,0,1.554-.8,4.336,4.336,0,0,1,4.1-.547,23.058,23.058,0,0,0,8.66,1.727,23.8,23.8,0,0,0,3.714-.265A23.246,23.246,0,0,0-29.486,25.283,23.275,23.275,0,0,0-48.353-.665" transform="translate(75.829 1.043)"/>
    </g>
    <g id="Group_4210" data-name="Group 4210" transform="translate(141.477 15.534)">
      <path id="Path_25028" data-name="Path 25028" class="cls-4" d="M-55.816-58.237a1.376,1.376,0,0,1-1.376-1.376v-15.17A13.81,13.81,0,0,0-70.986-88.577,13.81,13.81,0,0,0-84.78-74.783,13.81,13.81,0,0,0-70.986-60.989a13.809,13.809,0,0,0,6.574-1.664,1.376,1.376,0,0,1,1.866.552,1.376,1.376,0,0,1-.552,1.866,16.57,16.57,0,0,1-7.888,2A16.565,16.565,0,0,1-87.532-74.783,16.565,16.565,0,0,1-70.986-91.329,16.565,16.565,0,0,1-54.44-74.783v15.17a1.376,1.376,0,0,1-1.376,1.376" transform="translate(87.532 91.329)"/>
    </g>
    <g id="Group_4211" data-name="Group 4211" transform="translate(59.159 0)">
      <path id="Path_25029" data-name="Path 25029" class="cls-4" d="M-29.119-85.575a16.565,16.565,0,0,1-16.546-16.546,16.565,16.565,0,0,1,16.546-16.546,16.5,16.5,0,0,1,8.744,2.5,1.376,1.376,0,0,1,.44,1.9,1.375,1.375,0,0,1-1.9.439,13.758,13.758,0,0,0-7.288-2.08,13.81,13.81,0,0,0-13.795,13.794A13.81,13.81,0,0,0-29.119-88.327a13.81,13.81,0,0,0,13.794-13.795v-30.7a1.376,1.376,0,0,1,1.376-1.376,1.376,1.376,0,0,1,1.376,1.376v30.7A16.565,16.565,0,0,1-29.119-85.575" transform="translate(45.665 134.201)"/>
    </g>
    <g id="Group_4212" data-name="Group 4212" transform="translate(100.303 15.534)">
      <path id="Path_25030" data-name="Path 25030" class="cls-4" d="M-29.118-58.237A16.565,16.565,0,0,1-45.664-74.783,16.565,16.565,0,0,1-29.118-91.329,16.565,16.565,0,0,1-12.572-74.783a1.376,1.376,0,0,1-1.376,1.376h-15.17a1.376,1.376,0,0,1-1.376-1.376,1.376,1.376,0,0,1,1.376-1.376h13.726A13.813,13.813,0,0,0-29.118-88.577,13.81,13.81,0,0,0-42.912-74.783,13.81,13.81,0,0,0-29.118-60.989,13.669,13.669,0,0,0-19.1-65.306a1.376,1.376,0,0,1,1.945-.054,1.376,1.376,0,0,1,.054,1.945,16.4,16.4,0,0,1-12.022,5.177" transform="translate(45.664 91.329)"/>
    </g>
    <g id="Group_4213" data-name="Group 4213" transform="translate(14.192 15.077)">
      <path id="Path_25031" data-name="Path 25031" class="cls-4" d="M-29.119-58.237A16.565,16.565,0,0,1-45.665-74.783,16.565,16.565,0,0,1-29.119-91.329,16.565,16.565,0,0,1-12.573-74.783a1.376,1.376,0,0,1-1.376,1.376h-15.17a1.376,1.376,0,0,1-1.376-1.376,1.376,1.376,0,0,1,1.376-1.376h13.726A13.814,13.814,0,0,0-29.119-88.577,13.81,13.81,0,0,0-42.913-74.783,13.81,13.81,0,0,0-29.119-60.989,13.669,13.669,0,0,0-19.1-65.306a1.376,1.376,0,0,1,1.945-.054,1.376,1.376,0,0,1,.054,1.945,16.4,16.4,0,0,1-12.022,5.177" transform="translate(45.665 91.329)"/>
    </g>
  </g>
</svg>
